mimes/scalable/application-certificate.svg

<?xml version="1.0" encoding="UTF-8" standalone="no"?>
<svg
   xmlns:dc="http://purl.org/dc/elements/1.1/"
   xmlns:cc="http://creativecommons.org/ns#"
   xmlns:rdf="http://www.w3.org/1999/02/22-rdf-syntax-ns#"
   xmlns:svg="http://www.w3.org/2000/svg"
   xmlns="http://www.w3.org/2000/svg"
   xmlns:sodipodi="http://sodipodi.sourceforge.net/DTD/sodipodi-0.dtd"
   xmlns:inkscape="http://www.inkscape.org/namespaces/inkscape"
   width="48"
   height="48"
   viewBox="0 0 12.7 12.7"
   version="1.1"
   id="svg4"
   sodipodi:docname="application-certificate.svg"
   inkscape:version="0.92.3 (2405546, 2018-03-11)">
  <metadata
     id="metadata10">
    <rdf:RDF>
      <cc:Work
         rdf:about="">
        <dc:format>image/svg+xml</dc:format>
        <dc:type
           rdf:resource="http://purl.org/dc/dcmitype/StillImage" />
        <dc:title></dc:title>
      </cc:Work>
    </rdf:RDF>
  </metadata>
  <defs
     id="defs8" />
  <sodipodi:namedview
     pagecolor="#ffffff"
     bordercolor="#666666"
     borderopacity="1"
     objecttolerance="10"
     gridtolerance="10"
     guidetolerance="10"
     inkscape:pageopacity="0"
     inkscape:pageshadow="2"
     inkscape:window-width="1366"
     inkscape:window-height="715"
     id="namedview6"
     showgrid="false"
     showguides="true"
     inkscape:guide-bbox="true"
     inkscape:snap-global="true"
     inkscape:zoom="5.5104167"
     inkscape:cx="-11.478261"
     inkscape:cy="24"
     inkscape:window-x="0"
     inkscape:window-y="27"
     inkscape:window-maximized="1"
     inkscape:current-layer="svg4" />
  <g
     id="g827">
    <path
       id="path965"
       d="m 7.4452731,0.01688326 c -0.040983,0 -0.078161,0.0127642 -0.1049033,0.0330729 -0.025929,0.0196897 -0.041407,0.047003 -0.042375,0.0769979 0.1425477,0.0568061 0.2716984,0.13629486 0.3782716,0.24236248 0.1894734,0.18857428 0.312955,0.44366748 0.3302125,0.73018816 h 0.00672 v 0.068213 0.1441772 0.1369425 0.1927531 c 0,0.2812905 0.2266883,0.5079794 0.5079795,0.5079794 h 0.1183391 l -5.291e-4,0.00568 h 1.6924026 c 0.329951,0 0.613684,0.1491999 0.819072,0.3731038 V 1.1020885 0.5248626 c 0,-0.14064565 -0.05654,-0.26789289 -0.148312,-0.35966798 -0.09178,-0.0917751 -0.219024,-0.14831136 -0.35967,-0.14831136 H 9.1423149 7.8824437 Z"
       style="opacity:1;fill:#3771c8;fill-opacity:1;fill-rule:nonzero;stroke:none;stroke-width:0.50711805;stroke-linecap:round;stroke-linejoin:bevel;stroke-miterlimit:4;stroke-dasharray:none;stroke-opacity:1"
       inkscape:connector-curvature="0" />
    <path
       inkscape:connector-curvature="0"
       id="path833"
       d="m 2.9460732,0.60831414 c -0.6285519,0 -1.134298,0.50626306 -1.134298,1.13481456 v 9.9012043 c 0,0.628551 0.5057461,1.134814 1.134298,1.134814 h 4.2855261 2.522327 c 0.6285527,0 1.1342987,-0.506263 1.1342987,-1.134814 V 3.7290541 h -0.01292 C 10.810197,3.1632601 10.337709,2.7249809 9.7539263,2.7249809 h -1.692403 v 0 l -0.11781,-0.00568 C 7.6627483,2.7057546 7.4357343,2.4926122 7.4357343,2.2113215 V 2.018564 1.8816215 1.7374442 1.6692313 h -0.0067 C 7.3941823,1.0908651 6.9321933,0.6367337 6.3510473,0.61089793 l -5.29e-4,-0.002585 h -0.02015 z"
       style="opacity:1;fill:#333333;fill-opacity:1;fill-rule:nonzero;stroke:none;stroke-width:0.50711805;stroke-linecap:round;stroke-linejoin:bevel;stroke-miterlimit:4;stroke-dasharray:none;stroke-opacity:1" />
    <path
       inkscape:connector-curvature="0"
       id="path901-5"
       d="m 6.4269983,1.1354138 c 0.263277,0.019482 0.470254,0.2359637 0.470255,0.504362 v 0.2563151 0.125057 0.092501 c 0,0.5757933 0.427721,1.0388807 0.982369,1.1136271 v 0 l 1.962134,0.026872 c 0.2812647,0.00385 0.5079787,0.2266886 0.5079797,0.5079793 v 2.0835938 5.8962809 c 0,0.281291 -0.226688,0.50798 -0.5079797,0.50798 H 7.2315993 2.8582236 c -0.281291,0 -0.50798,-0.226689 -0.50798,-0.50798 V 1.6454602 c 0,-0.2812907 0.226689,-0.5079794 0.50798,-0.5079794 h 3.5692907 z"
       style="opacity:1;fill:#cccccc;fill-opacity:1;fill-rule:nonzero;stroke:none;stroke-width:0.50711805;stroke-linecap:round;stroke-linejoin:bevel;stroke-miterlimit:4;stroke-dasharray:none;stroke-opacity:1" />
    <path
       inkscape:connector-curvature="0"
       id="rect4412"
       d="M 2.8566659,4.0389619 A 0.14555554,0.14917938 0 0 0 2.71111,4.1881415 0.14555554,0.14917938 0 0 0 2.8566659,4.337321 V 4.4865003 A 0.14555554,0.14917938 0 0 0 2.71111,4.6356794 0.14555554,0.14917938 0 0 0 2.8566659,4.7848589 V 4.9340385 A 0.14555554,0.14917938 0 0 0 2.71111,5.0832178 0.14555554,0.14917938 0 0 0 2.8566659,5.232397 V 5.3815764 A 0.14555554,0.14917938 0 0 0 2.71111,5.530756 0.14555554,0.14917938 0 0 0 2.8566659,5.6799353 V 5.8291145 A 0.14555554,0.14917938 0 0 0 2.71111,5.9782939 0.14555554,0.14917938 0 0 0 2.8566659,6.1274736 V 6.2766528 A 0.14555554,0.14917938 0 0 0 2.71111,6.425832 0.14555554,0.14917938 0 0 0 2.8566659,6.5750115 V 6.7241912 A 0.14555554,0.14917938 0 0 0 2.71111,6.8733704 0.14555554,0.14917938 0 0 0 2.8566659,7.0225496 V 7.1717291 A 0.14555554,0.14917938 0 0 0 2.71111,7.3209086 0.14555554,0.14917938 0 0 0 2.8566659,7.4700878 V 7.6192671 A 0.14555554,0.14917938 0 0 0 2.71111,7.7684465 0.14555554,0.14917938 0 0 0 2.8566659,7.917626 V 8.0668053 A 0.14555554,0.14917938 0 0 0 2.71111,8.2159848 0.14555554,0.14917938 0 0 0 2.8566659,8.365164 V 8.5143435 A 0.14555554,0.14917938 0 0 0 2.71111,8.663523 0.14555554,0.14917938 0 0 0 2.8566659,8.8127022 V 8.9618817 A 0.14555554,0.14917938 0 0 0 2.71111,9.1110606 0.14555554,0.14917938 0 0 0 2.8566659,9.2602407 V 9.409421 A 0.14555554,0.14917938 0 0 0 2.71111,9.5585981 0.14555554,0.14917938 0 0 0 2.8566659,9.7077789 V 9.8569586 A 0.14555554,0.14917938 0 0 0 2.71111,10.006131 0.14555554,0.14917938 0 0 0 2.8566659,10.155312 v 0.149182 A 0.14555554,0.14917938 0 0 0 2.71111,10.453673 0.14555554,0.14917938 0 0 0 2.8566659,10.602854 v 0.149181 a 0.14555554,0.14917938 0 0 0 -0.1455559,0.149177 0.14555554,0.14917938 0 0 0 0.1455559,0.14918 v 0.149181 A 0.14555554,0.14917938 0 0 0 2.71111,11.34875 0.14555554,0.14917938 0 0 0 2.8566659,11.49793 0.14555554,0.14917938 0 0 0 3.0022205,11.34875 h 0.1455559 a 0.14555554,0.14917938 0 0 0 0.1455558,0.14918 0.14555554,0.14917938 0 0 0 0.1455553,-0.14918 h 0.1455559 a 0.14555554,0.14917938 0 0 0 0.1455547,0.14918 0.14555554,0.14917938 0 0 0 0.1455566,-0.14918 h 0.145555 a 0.14555554,0.14917938 0 0 0 0.1455554,0.14918 0.14555554,0.14917938 0 0 0 0.1455558,-0.14918 h 0.1455558 a 0.14555554,0.14917938 0 0 0 0.1455555,0.14918 0.14555554,0.14917938 0 0 0 0.1455556,-0.14918 h 0.1455548 a 0.14555554,0.14917938 0 0 0 0.1455559,0.14918 0.14555554,0.14917938 0 0 0 0.1455556,-0.14918 h 0.1455556 a 0.14555554,0.14917938 0 0 0 0.1455557,0.14918 0.14555554,0.14917938 0 0 0 0.1455558,-0.14918 h 0.145555 a 0.14555554,0.14917938 0 0 0 0.1455555,0.14918 0.14555554,0.14917938 0 0 0 0.1455555,-0.14918 h 0.1455554 a 0.14555554,0.14917938 0 0 0 0.1455558,0.14918 0.14555554,0.14917938 0 0 0 0.1455555,-0.14918 h 0.1455558 a 0.14555554,0.14917938 0 0 0 0.1455554,0.14918 0.14555554,0.14917938 0 0 0 0.1455553,-0.14918 h 0.1455557 a 0.14555554,0.14917938 0 0 0 0.1455555,0.14918 0.14555554,0.14917938 0 0 0 0.1455555,-0.14918 h 0.1455555 a 0.14555554,0.14917938 0 0 0 0.1455552,0.14918 0.14555554,0.14917938 0 0 0 0.1455561,-0.14918 h 0.1455549 a 0.14555554,0.14917938 0 0 0 0.1455561,0.14918 0.14555554,0.14917938 0 0 0 0.1455555,-0.14918 h 0.1455554 a 0.14555554,0.14917938 0 0 0 0.1455555,0.14918 0.14555554,0.14917938 0 0 0 0.1455558,-0.14918 h 0.1455552 a 0.14555554,0.14917938 0 0 0 0.1455555,0.14918 0.14555554,0.14917938 0 0 0 0.1455555,-0.14918 h 0.1455558 a 0.14555554,0.14917938 0 0 0 0.1455555,0.14918 0.14555554,0.14917938 0 0 0 0.1455555,-0.14918 h 0.1455552 a 0.14555554,0.14917938 0 0 0 0.1353217,0.14889 0.14555554,0.14917938 0 0 0 0.010229,2.91e-4 0.14555554,0.14917938 0 0 0 0.145556,-0.149181 0.14555554,0.14917938 0 0 0 -0.145556,-0.149177 v -0.14918 A 0.14555554,0.14917938 0 0 0 9.9888879,10.901212 0.14555554,0.14917938 0 0 0 9.8433326,10.752034 v -0.14918 A 0.14555554,0.14917938 0 0 0 9.98889,10.453673 0.14555554,0.14917938 0 0 0 9.843334,10.304493 v -0.14918 A 0.14555554,0.14917938 0 0 0 9.98889,10.006132 0.14555554,0.14917938 0 0 0 9.843334,9.8569565 V 9.7077797 A 0.14555554,0.14917938 0 0 0 9.98889,9.5585989 0.14555554,0.14917938 0 0 0 9.843334,9.4094196 V 9.2602409 A 0.14555554,0.14917938 0 0 0 9.9888879,9.1110606 0.14555554,0.14917938 0 0 0 9.8433324,8.9618817 V 8.8127027 A 0.14555554,0.14917938 0 0 0 9.9888879,8.6635232 0.14555554,0.14917938 0 0 0 9.8433324,8.5143437 V 8.3651642 A 0.14555554,0.14917938 0 0 0 9.9888879,8.215985 0.14555554,0.14917938 0 0 0 9.8433324,8.0668055 V 7.917626 A 0.14555554,0.14917938 0 0 0 9.9888879,7.7684468 0.14555554,0.14917938 0 0 0 9.8433324,7.6192676 V 7.4700881 A 0.14555554,0.14917938 0 0 0 9.9888879,7.3209089 0.14555554,0.14917938 0 0 0 9.8433324,7.1717291 V 7.0225501 A 0.14555554,0.14917938 0 0 0 9.9888879,6.8733707 0.14555554,0.14917938 0 0 0 9.8433324,6.7241912 V 6.5750138 A 0.14555554,0.14917938 0 0 0 9.9888871,6.4258345 0.14555554,0.14917938 0 0 0 9.8433316,6.2766554 V 6.1274757 A 0.14555554,0.14917938 0 0 0 9.9888871,5.9782962 0.14555554,0.14917938 0 0 0 9.8433316,5.8291171 V 5.6799353 A 0.14555554,0.14917938 0 0 0 9.9888871,5.530756 0.14555554,0.14917938 0 0 0 9.8433297,5.3815764 V 5.232397 A 0.14555554,0.14917938 0 0 0 9.9888871,5.0832178 0.14555554,0.14917938 0 0 0 9.8433297,4.9340385 V 4.7848589 A 0.14555554,0.14917938 0 0 0 9.9888871,4.6356794 0.14555554,0.14917938 0 0 0 9.8433297,4.4865003 V 4.337321 A 0.14555554,0.14917938 0 0 0 9.9888871,4.1881415 0.14555554,0.14917938 0 0 0 9.8433297,4.0389619 0.14555554,0.14917938 0 0 0 9.69806,4.1776523 0.14555554,0.14917938 0 0 0 9.6977689,4.1881416 H 9.5522201 A 0.14555554,0.14917938 0 0 0 9.4066646,4.0389619 0.14555554,0.14917938 0 0 0 9.2611091,4.1881415 H 9.1155533 A 0.14555554,0.14917938 0 0 0 8.9699978,4.0389619 0.14555554,0.14917938 0 0 0 8.8244423,4.1881415 H 8.6788871 A 0.14555554,0.14917938 0 0 0 8.5333313,4.0389619 0.14555554,0.14917938 0 0 0 8.3877758,4.1881415 H 8.2422204 A 0.14555554,0.14917938 0 0 0 8.0966649,4.0389619 0.14555554,0.14917938 0 0 0 7.9511088,4.1881415 H 7.8055539 A 0.14555554,0.14917938 0 0 0 7.6599978,4.0389619 0.14555554,0.14917938 0 0 0 7.5144426,4.1881415 H 7.3688871 A 0.14555554,0.14917938 0 0 0 7.2233316,4.0389619 0.14555554,0.14917938 0 0 0 7.0777761,4.1881415 H 6.9322204 A 0.14555554,0.14917938 0 0 0 6.7866651,4.0389619 0.14555554,0.14917938 0 0 0 6.6411097,4.1881415 H 6.4955539 A 0.14555554,0.14917938 0 0 0 6.3499984,4.0389619 0.14555554,0.14917938 0 0 0 6.2044426,4.1881415 H 6.0588872 A 0.14555554,0.14917938 0 0 0 5.9133317,4.0389619 0.14555554,0.14917938 0 0 0 5.7677762,4.1881415 H 5.6222212 A 0.14555554,0.14917938 0 0 0 5.4766654,4.0389619 0.14555554,0.14917938 0 0 0 5.3311097,4.1881415 H 5.1855541 A 0.14555554,0.14917938 0 0 0 5.0399985,4.0389619 0.14555554,0.14917938 0 0 0 4.8944426,4.1881415 H 4.7488878 A 0.14555554,0.14917938 0 0 0 4.6033322,4.0389619 0.14555554,0.14917938 0 0 0 4.4577767,4.1881415 H 4.3122209 A 0.14555554,0.14917938 0 0 0 4.1666651,4.0389619 0.14555554,0.14917938 0 0 0 4.0211097,4.1881415 H 3.8755547 A 0.14555554,0.14917938 0 0 0 3.7299981,4.0389619 0.14555554,0.14917938 0 0 0 3.5844434,4.1881415 H 3.4388875 A 0.14555554,0.14917938 0 0 0 3.2933322,4.0389619 0.14555554,0.14917938 0 0 0 3.1477764,4.1881415 H 3.0022205 A 0.14555554,0.14917938 0 0 0 2.8566659,4.0389619 Z M 3.0022205,4.337321 h 0.2911117 0.4366659 0.436667 0.4366671 0.4366663 0.4366669 0.4366663 0.4366667 0.4366667 0.4366665 0.4366662 0.4366671 0.4366664 0.4366665 0.4366668 0.2911107 V 4.6356794 5.0832178 5.530756 5.9782939 6.425832 6.8733704 7.3209086 7.7684465 8.2159848 8.663523 v 0.4475376 0.4475375 0.4475329 0.447542 0.447539 0.298361 H 9.4066646 8.9699978 8.5333313 8.0966649 7.6599978 7.2233316 6.7866651 6.3499984 5.9133317 5.4766654 5.0399985 4.6033322 4.1666651 3.7299981 3.2933322 3.0022205 V 10.901212 10.453673 10.006131 9.5585981 9.1110606 8.663523 8.2159848 7.7684465 7.3209086 6.8733704 6.425832 5.9782939 5.530756 5.0832178 4.6356794 Z"
       style="color:#000000;display:inline;overflow:visible;visibility:visible;opacity:1;fill:#3771c8;fill-opacity:1;fill-rule:nonzero;stroke:none;stroke-width:0.28222221;stroke-linecap:butt;stroke-linejoin:miter;stroke-miterlimit:4;stroke-dasharray:none;stroke-dashoffset:0;stroke-opacity:1;marker:none;enable-background:accumulate" />
    <path
       inkscape:connector-curvature="0"
       id="path4542"
       d="M 6.3499993,4.9390574 6.0492433,5.4599559 5.5717523,5.0940869 5.4932043,5.6899161 4.9123613,5.5348867 5.0679073,6.1157299 4.4715616,6.1942781 4.8379473,6.6712514 4.3170489,6.9720083 4.8379473,7.273282 4.4715616,7.7502553 l 0.5074627,0.066663 -1.1084598,1.9197796 0.9492958,-0.114205 0.375688,0.8790155 1.009241,-1.7476963 0.14521,0.2516642 0.145211,-0.2516642 1.009241,1.7476963 0.375688,-0.8790155 0.949296,0.114205 -1.10846,-1.9197796 0.507463,-0.066663 -0.366386,-0.4769733 0.520898,-0.3012737 -0.520898,-0.3007569 0.366386,-0.4769733 -0.596346,-0.078548 0.155546,-0.5808432 -0.580843,0.1550294 -0.07855,-0.5958292 -0.47749,0.365869 z m 0,0.885734 A 1.1475125,1.1475125 0 0 1 7.4977333,6.9720083 1.1475125,1.1475125 0 0 1 6.3499993,8.119742 1.1475125,1.1475125 0 0 1 5.2022663,6.9720083 1.1475125,1.1475125 0 0 1 6.3499993,5.8247914 Z"
       style="color:#000000;display:inline;overflow:visible;visibility:visible;fill:#3771c8;fill-opacity:1;fill-rule:nonzero;stroke:none;stroke-width:0.28222224;marker:none;enable-background:accumulate" />
  </g>
</svg>

<?xml version="1.0" encoding="UTF-8" standalone="no"?><svg xmlns:dc="http://purl.org/dc/elements/1.1/" xmlns:cc="http://creativecommons.org/ns#" xmlns:rdf="http://www.w3.org/1999/02/22-rdf-syntax-ns#" xmlns="http://www.w3.org/2000/svg" width="48" height="48" viewBox="0 0 12.7 12.7"><metadata><rdf:RDF><cc:Work><dc:format>image/svg+xml</dc:format><dc:type rdf:resource="http://purl.org/dc/dcmitype/StillImage"/><dc:title/></cc:Work></rdf:RDF></metadata><path d="M7.45.02a.17.17 0 0 0-.11.03.1.1 0 0 0-.04.08 1.12 1.12 0 0 1 .7.97h.01v.55c0 .27.23.5.51.5H10.34c.32 0 .6.15.81.38V.52a.5.5 0 0 0-.5-.5H7.87z" fill="#3771c8"/><path d="M2.95.6c-.63 0-1.14.51-1.14 1.14v9.9c0 .63.5 1.14 1.14 1.14H9.75c.63 0 1.14-.5 1.14-1.14V3.73h-.01c-.07-.57-.54-1-1.13-1H8.06l-.12-.01a.52.52 0 0 1-.5-.5v-.55h-.01A1.12 1.12 0 0 0 6.35.6h-.02z" fill="#333"/><path d="M6.43 1.14a.5.5 0 0 1 .47.5v.48c0 .57.42 1.03.98 1.1l1.96.03c.28 0 .51.23.51.51v7.99a.5.5 0 0 1-.5.5H2.85a.5.5 0 0 1-.51-.5V1.64c0-.29.23-.51.5-.51h3.58z" fill="#ccc"/><path d="M2.86 4.04a.15.15 0 0 0-.15.15.15.15 0 0 0 .15.15v.15a.15.15 0 0 0-.15.15.15.15 0 0 0 .15.14v.15a.15.15 0 0 0-.15.15.15.15 0 0 0 .15.15v.15a.15.15 0 0 0-.15.15.15.15 0 0 0 .15.15v.15a.15.15 0 0 0-.15.15.15.15 0 0 0 .15.15v.15a.15.15 0 0 0-.15.15.15.15 0 0 0 .15.15v.14a.15.15 0 0 0-.15.15.15.15 0 0 0 .15.15v.15a.15.15 0 0 0-.15.15.15.15 0 0 0 .15.15v.15a.15.15 0 0 0-.15.15.15.15 0 0 0 .15.15v.15a.15.15 0 0 0-.15.15.15.15 0 0 0 .15.15v.14a.15.15 0 0 0-.15.15.15.15 0 0 0 .15.15v.15a.15.15 0 0 0-.15.15.15.15 0 0 0 .15.15v.15a.15.15 0 0 0-.15.15.15.15 0 0 0 .15.15v.15a.15.15 0 0 0-.15.15.15.15 0 0 0 .15.15v.14a.15.15 0 0 0-.15.15.15.15 0 0 0 .15.15v.15a.15.15 0 0 0-.15.15.15.15 0 0 0 .15.15v.15a.15.15 0 0 0-.15.15.15.15 0 0 0 .15.15.15.15 0 0 0 .14-.15h.15a.15.15 0 0 0 .14.15.15.15 0 0 0 .15-.15h.14a.15.15 0 0 0 .15.15.15.15 0 0 0 .15-.15h.14a.15.15 0 0 0 .15.15.15.15 0 0 0 .14-.15h.15a.15.15 0 0 0 .14.15.15.15 0 0 0 .15-.15h.14a.15.15 0 0 0 .15.15.15.15 0 0 0 .15-.15h.14a.15.15 0 0 0 .15.15.15.15 0 0 0 .14-.15h.15a.15.15 0 0 0 .14.15.15.15 0 0 0 .15-.15h.14a.15.15 0 0 0 .15.15.15.15 0 0 0 .15-.15h.14a.15.15 0 0 0 .15.15.15.15 0 0 0 .14-.15h.15a.15.15 0 0 0 .14.15.15.15 0 0 0 .15-.15h.14a.15.15 0 0 0 .15.15.15.15 0 0 0 .15-.15h.14a.15.15 0 0 0 .15.15.15.15 0 0 0 .14-.15h.15a.15.15 0 0 0 .14.15.15.15 0 0 0 .15-.15h.14a.15.15 0 0 0 .15.15.15.15 0 0 0 .15-.15h.14a.15.15 0 0 0 .15.15.15.15 0 0 0 .14-.15h.15a.15.15 0 0 0 .13.15.15.15 0 0 0 .01 0 .15.15 0 0 0 .15-.15.15.15 0 0 0-.15-.15v-.15a.15.15 0 0 0 .15-.15.15.15 0 0 0-.15-.15v-.15a.15.15 0 0 0 .15-.15.15.15 0 0 0-.15-.15v-.14A.15.15 0 0 0 10 10a.15.15 0 0 0-.15-.15V9.7a.15.15 0 0 0 .15-.15.15.15 0 0 0-.15-.15v-.15a.15.15 0 0 0 .15-.15.15.15 0 0 0-.15-.15v-.15a.15.15 0 0 0 .15-.15.15.15 0 0 0-.15-.15v-.14a.15.15 0 0 0 .15-.15.15.15 0 0 0-.15-.15v-.15a.15.15 0 0 0 .15-.15.15.15 0 0 0-.15-.15v-.15a.15.15 0 0 0 .15-.15.15.15 0 0 0-.15-.15v-.15a.15.15 0 0 0 .15-.15.15.15 0 0 0-.15-.15v-.14a.15.15 0 0 0 .15-.15.15.15 0 0 0-.15-.15v-.15a.15.15 0 0 0 .15-.15.15.15 0 0 0-.15-.15v-.15a.15.15 0 0 0 .15-.15.15.15 0 0 0-.15-.15v-.15a.15.15 0 0 0 .15-.15.15.15 0 0 0-.15-.15v-.15a.15.15 0 0 0 .15-.14.15.15 0 0 0-.15-.15v-.15a.15.15 0 0 0 .15-.15.15.15 0 0 0-.15-.15.15.15 0 0 0-.14.14h-.15a.15.15 0 0 0-.14-.14.15.15 0 0 0-.15.15h-.14a.15.15 0 0 0-.15-.15.15.15 0 0 0-.15.15h-.14a.15.15 0 0 0-.15-.15.15.15 0 0 0-.14.15h-.15a.15.15 0 0 0-.14-.15.15.15 0 0 0-.15.15h-.14a.15.15 0 0 0-.15-.15.15.15 0 0 0-.15.15h-.14a.15.15 0 0 0-.15-.15.15.15 0 0 0-.14.15h-.15a.15.15 0 0 0-.14-.15.15.15 0 0 0-.15.15H6.5a.15.15 0 0 0-.15-.15.15.15 0 0 0-.15.15h-.14a.15.15 0 0 0-.15-.15.15.15 0 0 0-.14.15h-.15a.15.15 0 0 0-.14-.15.15.15 0 0 0-.15.15H5.2a.15.15 0 0 0-.15-.15.15.15 0 0 0-.15.15h-.14a.15.15 0 0 0-.15-.15.15.15 0 0 0-.14.15H4.3a.15.15 0 0 0-.14-.15.15.15 0 0 0-.15.15h-.14a.15.15 0 0 0-.15-.15.15.15 0 0 0-.15.15h-.14a.15.15 0 0 0-.15-.15.15.15 0 0 0-.14.15H3a.15.15 0 0 0-.14-.15zm.14.3H9.7V11.2H3V4.64z" style="marker:none" color="#000" overflow="visible" fill="#3771c8"/><path d="M6.35 4.94l-.3.52-.48-.37-.08.6-.58-.16.16.59-.6.07.37.48-.52.3.52.3-.37.48.5.07-1.1 1.92.95-.12.38.88 1-1.75.15.26.15-.26 1 1.75.38-.88.95.12-1.1-1.92.5-.07-.37-.48.52-.3-.52-.3.37-.48-.6-.07.16-.59-.58.16-.08-.6-.48.37zm0 .88A1.15 1.15 0 0 1 7.5 6.97a1.15 1.15 0 0 1-1.15 1.15A1.15 1.15 0 0 1 5.2 6.97a1.15 1.15 0 0 1 1.15-1.15z" style="marker:none" color="#000" overflow="visible" fill="#3771c8"/></svg>
